X:255
T: Nachbildung eines alten Mai- und Tanzspielliedes aus der Schweiz
N: A0300
O: Europa, Mitteleuropa, Deutschland
N: Baseler Tenor (1550) fol 44d
R: Romanze, Ballade, Lied
M: 4/2
L: 1/4
K: C
G2 | G2G2A2B2 | c4G2
d2 | B2c2A4 | G4z2
G2 | G2G2A2B2 | c4G2
d2 | B2c2A4 | G4z2
c2 | d2e2d2c2 | e4d4 | c4z4 | z2
G2A2G2 | E2G4FE | D2C2D4 | C4z2
C2 | E3FG2A2 | B2c2A4 | G4z2
G2 | A2B2c2G2 | c4d4 | c8

